X:1
T:Title
%%score { ( 1 3 ) | ( 2 4 ) }
L:1/8
M:4/4
K:G
V:1 treble nm="Grand Piano"
V:3 treble 
V:2 bass 
V:4 bass 
V:1
 z4 z2[Q:1/4=100] [B,G]2 | E3 ^D E3 D | E2 G6 | [B,D]3 [_B,^C] [=B,D]3 [_B,C] | [B,D]2 [B,DG]6 | %5
 F3 =F ^F3 =F | F2 [FA]6 | G3 F G3 F | G2 B6 | B6 B2 | c4 B4 | B6 [^DFA]2 | [B,FA]4 [B,EG]4 | %13
 [CEG]6 [G,CE]2 | [G,CE]4 [G,B,D]4 | F6 z2 |[M:3/4] [B,G]6 |] %17
V:2
 z4 z2 [G,,G,]2 | [C,G,C]3 [C,F,C] [C,G,C]3 [C,F,C] | [C,G,C]2 [C,E,C]6 | %3
 [G,,G,]3 [G,,G,] [G,,G,]3 [G,,G,] | [G,,G,]2 G,,6 | [D,A,D]3 [D,^G,D] [D,A,D]3 [D,G,D] | %6
 [D,A,D]2 [D,C]6 | [G,B,D]3 [G,B,D] [G,B,D]3 [G,B,D] | [G,B,D]2 [G,DG]6 | [G,DG]6 [G,DG]2 | %10
 [G,EG]4 [G,DG]4 | [F,^DF]6 B,,2 | E,4 E,2 D,2 | C,6 C,2 | G,,4 G,,4 | z4 z2 G2 | %16
[M:3/4] [G,,D,G,]6 |] %17
V:3
 x8 | x8 | x8 | x8 | x8 | x8 | x8 | x8 | x8 | x8 | x8 | x8 | x8 | x8 | x8 | [A,C]8 |[M:3/4] x6 |] %17
V:4
 x8 | x8 | x8 | x8 | x8 | x8 | x8 | x8 | x8 | x8 | x8 | x8 | x8 | x8 | x8 | D,8 |[M:3/4] x6 |] %17

